rospo-icon-theme-classic-common/16x16/status/package-available.svg

<svg height="16" viewBox="0 0 16 16" width="16" xmlns="http://www.w3.org/2000/svg"><rect fill="#e4e4e4" height="16" rx=".8" transform="matrix(0 -1 -1 0 0 0)" width="16" x="-16" y="-16"/><path d="m6.5976562 0c-.3309974 0-.5976562.34239436-.5976562.76757812v5.23242188h-5.23242188c-.42518376 0-.76757812.2666588-.76757812.5976562v2.8046876c0 .3309974.34239436.5976562.76757812.5976562h5.23242188v5.232422c0 .425184.2666588.767578.5976562.767578h2.8046876c.3309974 0 .5976562-.342394.5976562-.767578v-5.232422h5.232422c.425184 0 .767578-.2666588.767578-.5976562v-2.8046876c0-.3309974-.342394-.5976562-.767578-.5976562h-5.232422v-5.23242188c0-.42518376-.2666588-.76757812-.5976562-.76757812z" fill="#ac6f11" opacity=".5"/></svg>

<svg xmlns="http://www.w3.org/2000/svg" width="16" height="16" version="1.1" viewBox="0 0 16 16">
 <rect style="fill:#cccccc" width="16" height="16" x="-16" y="-16" rx=".8" ry=".8" transform="matrix(0,-1,-1,0,0,0)"/>
 <path style="opacity:0.5;fill:#ac6f11" d="M 6.5976562 0 C 6.2666588 0 6 0.34239436 6 0.76757812 L 6 6 L 0.76757812 6 C 0.34239436 6 1.9001242e-17 6.2666588 0 6.5976562 L 0 9.4023438 C 0 9.7333412 0.34239436 10 0.76757812 10 L 6 10 L 6 15.232422 C 6 15.657606 6.2666588 16 6.5976562 16 L 9.4023438 16 C 9.7333412 16 10 15.657606 10 15.232422 L 10 10 L 15.232422 10 C 15.657606 10 16 9.7333412 16 9.4023438 L 16 6.5976562 C 16 6.2666588 15.657606 6 15.232422 6 L 10 6 L 10 0.76757812 C 10 0.34239436 9.7333412 1.9001242e-17 9.4023438 0 L 6.5976562 0 z"/>
</svg>
